static/cards/FrenchDeck/cyberwave/card_diamonds_03.svg

<svg xmlns="http://www.w3.org/2000/svg" width="822" height="1122" fill="none" viewBox="0 0 822 1122"><rect width="822" height="1122" fill="#1a0033" rx="20"/><g fill="#b366ff" clip-path="url(#a)"><path d="M119.787 160.92q-9.217 0-16.384-1.536-7.17-1.536-11.777-4.48-.767-.512-.895-.896-.129-.384.256-1.152l1.663-2.816q.384-.768.896-.768.257 0 .896.384 9.217 5.376 24.961 5.376 12.671 0 18.944-5.504 6.4-5.504 6.4-14.592 0-9.216-5.376-13.568-5.376-4.48-16.128-4.48h-11.136q-2.944 0-2.944-2.816v-.896q0-1.408.64-1.92.768-.64 2.304-.64h12.032q8.703 0 13.184-4.992 4.608-5.12 4.608-12.288 0-8.705-6.016-13.056-6.016-4.352-17.152-4.352-6.912 0-12.672 1.536-5.76 1.408-9.6 3.84-.512.384-.897.384-.511 0-.895-.768l-1.665-2.816a1.58 1.58 0 0 1-.256-.896q.001-.64.896-1.152 3.84-2.688 10.753-4.352 6.912-1.665 14.848-1.664 13.567 0 21.376 6.4 7.935 6.4 7.936 16.896 0 6.528-3.456 12.16t-9.728 8.192q8.448 2.56 12.159 7.808 3.841 5.248 3.841 13.44 0 7.553-3.712 13.44-3.585 5.887-10.752 9.216-7.04 3.328-17.152 3.328M112.679 208.481c3.959-5.938 12.683-5.938 16.642 0l21.981 32.972a10 10 0 0 1 0 11.094l-21.981 32.972c-3.959 5.938-12.683 5.938-16.642 0l-21.981-32.972a10 10 0 0 1 0-11.094zM694.213 957.08q9.216 0 16.384 1.536t11.776 4.48q.768.512.896.896.129.384-.256 1.152l-1.664 2.816q-.383.768-.896.768-.255 0-.896-.384-9.216-5.376-24.96-5.376-12.671 0-18.944 5.504-6.4 5.504-6.4 14.592 0 9.216 5.376 13.568 5.376 4.48 16.128 4.478h11.136q2.944 0 2.944 2.82v.89q0 1.41-.64 1.92c-.512.43-1.28.64-2.304.64h-12.032c-5.802 0-10.197 1.67-13.184 5-3.072 3.41-4.608 7.51-4.608 12.28 0 5.81 2.006 10.16 6.016 13.06q6.016 4.35 17.152 4.35 6.912 0 12.672-1.53 5.76-1.41 9.6-3.84.513-.39.896-.39c.342 0 .64.26.896.77l1.664 2.82c.171.25.256.55.256.89 0 .43-.298.81-.896 1.15-2.56 1.8-6.144 3.25-10.752 4.36s-9.557 1.66-14.848 1.66c-9.045 0-16.17-2.13-21.376-6.4-5.29-4.27-7.936-9.9-7.936-16.9 0-4.35 1.152-8.4 3.456-12.16q3.456-5.625 9.728-8.19c-5.632-1.7-9.685-4.31-12.159-7.806q-3.841-5.249-3.841-13.44 0-7.552 3.712-13.44 3.585-5.887 10.752-9.216 7.04-3.328 17.152-3.328M701.321 909.519c-3.959 5.938-12.683 5.938-16.642 0l-21.981-32.972a10 10 0 0 1 0-11.094l21.981-32.972c3.959-5.938 12.683-5.938 16.642 0l21.981 32.972a10 10 0 0 1 0 11.094z"/></g><path stroke="#b366ff" stroke-width="8" d="M314.008 617.699c2.375-3.562 7.609-3.562 9.984 0l21.982 32.973a6 6 0 0 1 0 6.656l-21.982 32.973c-2.375 3.562-7.609 3.562-9.984 0l-21.982-32.973a6 6 0 0 1 0-6.656zM482.008 617.699c2.375-3.562 7.609-3.562 9.984 0l21.982 32.973a6 6 0 0 1 0 6.656l-21.982 32.973c-2.375 3.562-7.609 3.562-9.984 0l-21.982-32.973a6 6 0 0 1 0-6.656zM398.008 455.699c2.375-3.562 7.609-3.562 9.984 0l21.982 32.973a6 6 0 0 1 0 6.656l-21.982 32.973c-2.375 3.562-7.609 3.562-9.984 0l-21.982-32.973a6 6 0 0 1 0-6.656z"/><defs><clipPath id="a"><path fill="#fff" d="M46 48h722v1022H46z"/></clipPath></defs></svg>

<svg width="822" height="1122" viewBox="0 0 822 1122" fill="none" xmlns="http://www.w3.org/2000/svg">
<rect width="822" height="1122" rx="20" fill="#1A0033"/>
<g clip-path="url(#clip0_31_612)">
<path d="M119.787 160.92C113.643 160.92 108.181 160.408 103.403 159.384C98.6238 158.36 94.6985 156.867 91.6265 154.904C91.1145 154.563 90.8158 154.264 90.7305 154.008C90.6452 153.752 90.7305 153.368 90.9865 152.856L92.6505 150.04C92.9065 149.528 93.2052 149.272 93.5465 149.272C93.7172 149.272 94.0158 149.4 94.4425 149.656C100.587 153.24 108.907 155.032 119.403 155.032C127.851 155.032 134.165 153.197 138.347 149.528C142.613 145.859 144.747 140.995 144.747 134.936C144.747 128.792 142.955 124.269 139.371 121.368C135.787 118.381 130.411 116.888 123.243 116.888H112.107C110.144 116.888 109.163 115.949 109.163 114.072V113.176C109.163 112.237 109.376 111.597 109.803 111.256C110.315 110.829 111.083 110.616 112.107 110.616H124.139C129.941 110.616 134.336 108.952 137.323 105.624C140.395 102.211 141.931 98.1147 141.931 93.336C141.931 87.5333 139.925 83.1813 135.915 80.28C131.904 77.3787 126.187 75.928 118.763 75.928C114.155 75.928 109.931 76.44 106.091 77.464C102.251 78.4027 99.0505 79.6827 96.4905 81.304C96.1492 81.56 95.8505 81.688 95.5945 81.688C95.2532 81.688 94.9545 81.432 94.6985 80.92L93.0345 78.104C92.8638 77.848 92.7785 77.5493 92.7785 77.208C92.7785 76.7813 93.0772 76.3973 93.6745 76.056C96.2345 74.264 99.8185 72.8133 104.427 71.704C109.035 70.5947 113.984 70.04 119.275 70.04C128.32 70.04 135.445 72.1733 140.651 76.44C145.941 80.7067 148.587 86.3387 148.587 93.336C148.587 97.688 147.435 101.741 145.131 105.496C142.827 109.251 139.584 111.981 135.403 113.688C141.035 115.395 145.088 117.997 147.562 121.496C150.123 124.995 151.403 129.475 151.403 134.936C151.403 139.971 150.165 144.451 147.691 148.376C145.301 152.301 141.717 155.373 136.939 157.592C132.245 159.811 126.528 160.92 119.787 160.92Z" fill="#B366FF"/>
<path d="M112.679 208.481C116.638 202.543 125.362 202.543 129.321 208.481L151.302 241.453C153.541 244.812 153.541 249.188 151.302 252.547L129.321 285.519C125.362 291.457 116.638 291.457 112.679 285.519L90.698 252.547C88.4587 249.188 88.4587 244.812 90.698 241.453L112.679 208.481Z" fill="#B366FF"/>
<path d="M694.213 957.08C700.357 957.08 705.819 957.592 710.597 958.616C715.376 959.64 719.301 961.133 722.373 963.096C722.885 963.437 723.184 963.736 723.269 963.992C723.355 964.248 723.269 964.632 723.013 965.144L721.349 967.96C721.093 968.472 720.795 968.728 720.453 968.728C720.283 968.728 719.984 968.6 719.557 968.344C713.413 964.76 705.093 962.968 694.597 962.968C686.149 962.968 679.835 964.803 675.653 968.472C671.387 972.141 669.253 977.005 669.253 983.064C669.253 989.208 671.045 993.731 674.629 996.632C678.213 999.619 683.589 1001.11 690.757 1001.11H701.893C703.856 1001.11 704.837 1002.05 704.837 1003.93V1004.82C704.837 1005.76 704.624 1006.4 704.197 1006.74C703.685 1007.17 702.917 1007.38 701.893 1007.38H689.861C684.059 1007.38 679.664 1009.05 676.677 1012.38C673.605 1015.79 672.069 1019.89 672.069 1024.66C672.069 1030.47 674.075 1034.82 678.085 1037.72C682.096 1040.62 687.813 1042.07 695.237 1042.07C699.845 1042.07 704.069 1041.56 707.909 1040.54C711.749 1039.6 714.949 1038.32 717.509 1036.7C717.851 1036.44 718.149 1036.31 718.405 1036.31C718.747 1036.31 719.045 1036.57 719.301 1037.08L720.965 1039.9C721.136 1040.15 721.221 1040.45 721.221 1040.79C721.221 1041.22 720.923 1041.6 720.325 1041.94C717.765 1043.74 714.181 1045.19 709.573 1046.3C704.965 1047.41 700.016 1047.96 694.725 1047.96C685.68 1047.96 678.555 1045.83 673.349 1041.56C668.059 1037.29 665.413 1031.66 665.413 1024.66C665.413 1020.31 666.565 1016.26 668.869 1012.5C671.173 1008.75 674.416 1006.02 678.597 1004.31C672.965 1002.61 668.912 1000 666.438 996.504C663.877 993.005 662.597 988.525 662.597 983.064C662.597 978.029 663.835 973.549 666.309 969.624C668.699 965.699 672.283 962.627 677.061 960.408C681.755 958.189 687.472 957.08 694.213 957.08Z" fill="#B366FF"/>
<path d="M701.321 909.519C697.362 915.457 688.638 915.457 684.679 909.519L662.698 876.547C660.459 873.188 660.459 868.812 662.698 865.453L684.679 832.481C688.638 826.543 697.362 826.543 701.321 832.481L723.302 865.453C725.541 868.812 725.541 873.188 723.302 876.547L701.321 909.519Z" fill="#B366FF"/>
</g>
<path d="M314.008 617.699C316.383 614.137 321.617 614.137 323.992 617.699L345.974 650.672C347.317 652.687 347.317 655.313 345.974 657.328L323.992 690.301C321.617 693.863 316.383 693.863 314.008 690.301L292.026 657.328C290.683 655.313 290.683 652.687 292.026 650.672L314.008 617.699Z" stroke="#B366FF" stroke-width="8"/>
<path d="M482.008 617.699C484.383 614.137 489.617 614.137 491.992 617.699L513.974 650.672C515.317 652.687 515.317 655.313 513.974 657.328L491.992 690.301C489.617 693.863 484.383 693.863 482.008 690.301L460.026 657.328C458.683 655.313 458.683 652.687 460.026 650.672L482.008 617.699Z" stroke="#B366FF" stroke-width="8"/>
<path d="M398.008 455.699C400.383 452.137 405.617 452.137 407.992 455.699L429.974 488.672C431.317 490.687 431.317 493.313 429.974 495.328L407.992 528.301C405.617 531.863 400.383 531.863 398.008 528.301L376.026 495.328C374.683 493.313 374.683 490.687 376.026 488.672L398.008 455.699Z" stroke="#B366FF" stroke-width="8"/>
<defs>
<clipPath id="clip0_31_612">
<rect width="722" height="1022" fill="white" transform="translate(46 48)"/>
</clipPath>
</defs>
</svg>
